icons/dribbble-fill.svg

<svg xmlns="http://www.w3.org/2000/svg" width="24" height="24" fill="none"><g clip-path="url(#a)"><g><path fill="#121212" d="M12 2C6.48 2 2 6.48 2 12C2 17.52 6.48 22 12 22C17.51 22 22 17.52 22 12C22 6.48 17.51 2 12 2ZM18.605 6.61C19.8357 8.10931 20.5167 9.98437 20.535 11.924C20.254 11.87 17.434 11.295 14.592 11.653C14.527 11.512 14.472 11.36 14.408 11.208C14.231 10.791 14.043 10.3789 13.844 9.972C16.989 8.692 18.421 6.848 18.605 6.61ZM12 3.475C14.17 3.475 16.154 4.289 17.662 5.623C17.51 5.839 16.219 7.564 13.182 8.703C11.783 6.133 10.232 4.028 9.993 3.703C10.6509 3.54921 11.3244 3.47269 12 3.475ZM8.367 4.278C9.51143 5.86432 10.5687 7.51176 11.534 9.213C7.542 10.276 4.017 10.253 3.638 10.253C3.91283 8.96013 4.48261 7.74822 5.3029 6.71179C6.12319 5.67537 7.17182 4.84245 8.367 4.278ZM3.453 12.01V11.75C3.823 11.76 7.965 11.815 12.228 10.535C12.478 11.012 12.705 11.5 12.922 11.988C12.813 12.021 12.694 12.053 12.586 12.086C8.182 13.506 5.839 17.389 5.644 17.715C4.23384 16.1495 3.45364 14.117 3.454 12.01H3.453ZM12 20.547C10.1014 20.5502 8.25667 19.9164 6.761 18.747C6.913 18.432 8.649 15.091 13.464 13.41C13.486 13.4 13.497 13.4 13.518 13.388C14.3303 15.4834 14.9408 17.6516 15.341 19.863C14.2858 20.317 13.1487 20.5498 12 20.547ZM16.761 19.082C16.675 18.562 16.219 16.067 15.101 12.998C17.781 12.575 20.124 13.269 20.416 13.367C20.2336 14.5201 19.8148 15.623 19.1858 16.6065C18.5568 17.59 17.7313 18.4328 16.761 19.082Z"/></g></g><defs><clipPath id="a"><rect width="24" height="24" fill="white"/></clipPath></defs></svg>

<svg width="24" height="24" fill="none" xmlns="http://www.w3.org/2000/svg"><g clip-path="url(#a)"><path d="M12 2C6.48 2 2 6.48 2 12s4.48 10 10 10c5.51 0 10-4.48 10-10S17.51 2 12 2Zm6.605 4.61a8.502 8.502 0 0 1 1.93 5.314c-.281-.054-3.101-.629-5.943-.271-.065-.141-.12-.293-.184-.445a25.42 25.42 0 0 0-.564-1.236c3.145-1.28 4.577-3.124 4.761-3.362ZM12 3.475c2.17 0 4.154.814 5.662 2.148-.152.216-1.443 1.941-4.48 3.08-1.399-2.57-2.95-4.675-3.189-5A8.686 8.686 0 0 1 12 3.475Zm-3.633.803a53.894 53.894 0 0 1 3.167 4.935c-3.992 1.063-7.517 1.04-7.896 1.04a8.581 8.581 0 0 1 4.729-5.975ZM3.453 12.01v-.26c.37.01 4.512.065 8.775-1.215.25.477.477.965.694 1.453-.109.033-.228.065-.336.098-4.404 1.42-6.747 5.303-6.942 5.629a8.522 8.522 0 0 1-2.19-5.705h-.001ZM12 20.547a8.482 8.482 0 0 1-5.239-1.8c.152-.315 1.888-3.656 6.703-5.337.022-.01.033-.01.054-.022a35.311 35.311 0 0 1 1.823 6.475 8.402 8.402 0 0 1-3.341.684Zm4.761-1.465c-.086-.52-.542-3.015-1.66-6.084 2.68-.423 5.023.271 5.315.369a8.468 8.468 0 0 1-3.655 5.715Z" /></g><defs><clipPath id="a"><path fill="#fff" d="M0 0h24v24H0z"/></clipPath></defs></svg>
